X: 36
T:The Hare in the Corn
M:6/8
L:1/8
R:Jig
D:Session tape - Derrygonelly, Fermanagh 1993
Z:Bernie Stocks
K:D
A3 ABc | dAG FED |1 GBG FGA | BEE E3:|2 dfa gec | dAF D3::\
afd gec | dAG FED |1 GBG FGA | GBE E3:|2 dfa gec | dAF D3:|
<end>
<start>
